X:552
T: Denglongge
N: C1971
O: China,Guangdong Heifeng
S: II, 379]
R: Xiaodiao]
M: 2/4
L: 1/16
K: G
d2G2G2A2 | B4dddA | BAGAB4 |
E2B2AB2A | G2G2ABAE | G4
A2B2AB2A | G2G2ABGA | B4z4 |
E2B2AB2A | G2G2ABAE | G4
G2E2 | DEG2EDB,A, | D2EGD4

@@@ Tune index: 7107
